src/images/html.svg

<svg width="120" height="120" viewBox="0 0 120 120" fill="none" xmlns="http://www.w3.org/2000/svg">
<path fill-rule="evenodd" clip-rule="evenodd" d="M16 14H104L96.3966 101.532L60 111L23.9287 101.532L16 14Z" fill="#D1D2D6"/>
<path fill-rule="evenodd" clip-rule="evenodd" d="M38.5533 32.145H86.7026L84.4377 59.1264L82.6949 86.5197L60.0575 92.4206L39.0771 86.4843L37.5703 72.2531L47.2943 71.2338L48.1086 78.9253L60.1631 82.336L73.3829 78.8899L74.3535 63.6347H53.2773V53.9059H75.0641L76.0741 41.8738H38.5533V32.145Z" fill="#F5F6F7"/>
</svg>

<svg xmlns="http://www.w3.org/2000/svg" fill="none" viewBox="0 0 120 120"><path fill="#D1D2D6" fill-rule="evenodd" d="M16 14h88l-7.603 87.532L60 111l-36.071-9.468L16 14z" clip-rule="evenodd"/><path fill="#F5F6F7" fill-rule="evenodd" d="M38.553 32.145h48.15l-2.265 26.981-1.743 27.394-22.637 5.9-20.98-5.936-1.508-14.23 9.724-1.02.815 7.691 12.054 3.411 13.22-3.446.97-15.255H53.277v-9.73h21.787l1.01-12.031h-37.52v-9.729z" clip-rule="evenodd"/></svg>
